;Generated with Cura_SteamEngine 15.01
;Startcode BIBO printers
G90 ; absolute mode
G21 ; metric values
M82 ; Extruder in absolute mode
M107
G28
G1 Z9 F100
M190 S50
M109 T0 S190
T0
M302
G92 E0
G28
G1 Y0 F300 E0
G92 E0
T0
G92 E0
G1 X-16.0 Y-92.9 Z0.3 F1500.0		; move to start-line position
G1 X16.0 Y-92.9 Z0.3 F1000.0 E2		; draw 1st line
G1 X16.0 Y-92.6 Z0.3 F3000.0		; move to side a little
G1 X-16.0 Y-92.6 Z0.3 F1000.0 E4		; draw 2nd line
G1 X-16.0 Y-92.3 Z0.3 F3000.0		; move to side a little
G1 X16.0 Y-92.3 Z0.3 F1000.0 E6		; draw 3rd line
G1 X16.0 Y-92 Z0.3 F3000.0		; move to side a little
G1 X-16.0 Y-92 Z0.3 F1000.0 E8		; draw 4th line
G1 X-16.0 Y-91.7 Z0.3 F3000.0		; move to side a little
G1 X16.0 Y-91.7 Z0.3 F1000.0 E10		; draw 5th line
G1 E9.5 F2400				; retract filament 0.5mm
G92 E0
M117 BIBO Printing...
;Layer count: 25
;LAYER:0
M107
G1 F3600 E-6.80000
G0 F6000 X27.212 Y58.867 Z0.300
;TYPE:WALL-INNER
G1 F3600 E0.00000
G1 F1800 X30.664 Y57.267 E0.16094
G1 X34.074 Y55.582 E0.32184
G1 X35.758 Y54.696 E0.40233
G1 X37.441 Y53.813 E0.48273
G1 X40.764 Y51.959 E0.64369
G1 X44.038 Y50.023 E0.80458
G1 X47.263 Y48.007 E0.96546
G1 X50.437 Y45.910 E1.12638
G1 X53.558 Y43.734 E1.28732
G1 X56.623 Y41.481 E1.44823
G1 X59.630 Y39.153 E1.60910
G1 X62.580 Y36.749 E1.77007
G1 X65.467 Y34.273 E1.93095
G1 X68.292 Y31.725 E2.09188
G1 X71.052 Y29.108 E2.25277
G1 X73.724 Y26.444 E2.41237
G1 X74.374 Y25.840 E2.44991
G1 X75.058 Y25.321 E2.48623
G1 X75.784 Y24.872 E2.52234
G1 X76.552 Y24.496 E2.55851
G1 X77.360 Y24.193 E2.59501
G1 X78.178 Y23.975 E2.63082
G1 X79.029 Y23.835 E2.66730
G1 X79.881 Y23.778 E2.70342
G1 X80.740 Y23.805 E2.73978
G1 X81.589 Y23.915 E2.77599
G1 X82.429 Y24.107 E2.81244
G1 X83.234 Y24.377 E2.84836
G1 X84.020 Y24.729 E2.88479
G1 X84.755 Y25.147 E2.92055
G1 X85.462 Y25.648 E2.95721
G1 X86.105 Y26.203 E2.99314
G1 X86.699 Y26.827 E3.02958
G1 X87.230 Y27.505 E3.06601
G1 X87.688 Y28.226 E3.10214
G1 X88.075 Y28.990 E3.13837
G1 X88.380 Y29.775 E3.17399
G1 X88.616 Y30.615 E3.21090
G1 X88.766 Y31.448 E3.24671
G1 X88.834 Y32.317 E3.28358
G1 X88.836 Y32.743 E3.30160
G1 X88.819 Y33.152 E3.31891
G1 X88.720 Y34.005 E3.35524
G1 X88.537 Y34.854 E3.39198
G1 X88.275 Y35.671 E3.42827
G1 X88.120 Y36.061 E3.44602
G1 X87.739 Y36.836 E3.48255
G1 X87.289 Y37.564 E3.51875
G1 X86.773 Y38.243 E3.55483
G1 X86.191 Y38.870 E3.59102
G1 X85.547 Y39.441 E3.62742
G1 X84.851 Y39.946 E3.66380
G1 X84.121 Y40.374 E3.69959
G1 X83.332 Y40.740 E3.73639
G1 X82.539 Y41.017 E3.77192
G1 X81.694 Y41.223 E3.80871
G1 X80.852 Y41.342 E3.84468
G1 X80.000 Y41.379 E3.88075
G1 X79.141 Y41.334 E3.91714
G1 X78.285 Y41.203 E3.95377
G1 X77.465 Y40.995 E3.98956
G1 X76.665 Y40.707 E4.02552
G1 X75.876 Y40.333 E4.06246
G1 X75.155 Y39.901 E4.09801
G1 X74.459 Y39.385 E4.13466
G1 X73.841 Y38.827 E4.16988
G1 X73.739 Y38.706 E4.17658
G1 X73.667 Y38.582 E4.18264
G1 X73.621 Y38.457 E4.18828
G1 X73.596 Y38.313 E4.19446
G1 X73.595 Y38.177 E4.20021
G1 X73.619 Y38.040 E4.20610
G1 X73.666 Y37.911 E4.21190
G1 X73.739 Y37.784 E4.21810
G1 X73.825 Y37.682 E4.22374
G1 X73.932 Y37.591 E4.22969
G1 X74.054 Y37.521 E4.23564
G1 X74.180 Y37.474 E4.24132
G1 X74.323 Y37.449 E4.24746
G1 X74.459 Y37.449 E4.25322
G1 X74.597 Y37.473 E4.25914
G1 X74.726 Y37.520 E4.26495
G1 X74.843 Y37.587 E4.27065
G1 X75.294 Y37.975 E4.29582
G1 X75.619 Y38.261 E4.31413
G1 X76.347 Y38.758 E4.35142
G1 X77.130 Y39.164 E4.38873
G1 X77.957 Y39.470 E4.42603
G1 X78.816 Y39.672 E4.46336
G1 X79.693 Y39.769 E4.50068
G1 X80.574 Y39.757 E4.53795
G1 X81.449 Y39.637 E4.57531
G1 X82.302 Y39.411 E4.61264
G1 X83.119 Y39.083 E4.64988
G1 X83.893 Y38.658 E4.68723
G1 X84.607 Y38.139 E4.72457
G1 X85.253 Y37.540 E4.76183
G1 X85.820 Y36.865 E4.79912
G1 X86.301 Y36.125 E4.83646
G1 X86.683 Y35.342 E4.87331
G1 X86.977 Y34.485 E4.91164
G1 X87.156 Y33.636 E4.94834
G1 X87.233 Y32.758 E4.98562
G1 X87.200 Y31.876 E5.02296
G1 X87.062 Y31.021 E5.05959
G1 X86.943 Y30.557 E5.07986
G1 X86.656 Y29.753 E5.11597
G1 X86.248 Y28.942 E5.15437
G1 X85.765 Y28.219 E5.19115
G1 X85.189 Y27.551 E5.22846
G1 X84.535 Y26.959 E5.26578
G1 X83.815 Y26.451 E5.30305
G1 X83.038 Y26.035 E5.34033
G1 X82.215 Y25.717 E5.37765
G1 X81.359 Y25.502 E5.41499
G1 X80.490 Y25.395 E5.45202
G1 X80.051 Y25.389 E5.47060
G1 X79.596 Y25.394 E5.48984
G1 X78.726 Y25.501 E5.52692
G1 X77.871 Y25.713 E5.56419
G1 X77.047 Y26.030 E5.60153
G1 X76.269 Y26.445 E5.63883
G1 X75.548 Y26.952 E5.67612
G1 X74.921 Y27.518 E5.71185
G1 X72.232 Y30.199 E5.87247
G1 X69.498 Y32.796 E6.03198
G1 X66.683 Y35.341 E6.19250
G1 X63.844 Y37.784 E6.35094
G1 X60.925 Y40.173 E6.51050
G1 X57.936 Y42.500 E6.67073
G1 X54.900 Y44.747 E6.83050
G1 X51.834 Y46.900 E6.98898
G1 X48.696 Y48.992 E7.14851
G1 X47.093 Y50.006 E7.22875
G1 X45.508 Y51.006 E7.30802
G1 X42.255 Y52.952 E7.46837
G1 X38.976 Y54.804 E7.62767
G1 X35.641 Y56.583 E7.78756
G1 X32.292 Y58.264 E7.94607
G1 X30.577 Y59.074 E8.02630
G1 X28.881 Y59.873 E8.10560
G1 X25.411 Y61.408 E8.26611
G1 X21.931 Y62.846 E8.42538
G1 X20.180 Y63.521 E8.50477
G1 X18.413 Y64.199 E8.58482
G1 X14.871 Y65.462 E8.74389
G1 X11.275 Y66.647 E8.90405
G1 X7.687 Y67.732 E9.06262
G1 X5.859 Y68.238 E9.14285
G1 X4.039 Y68.739 E9.22270
G1 X0.394 Y69.649 E9.38162
G1 X-1.456 Y70.064 E9.46182
G1 X-3.286 Y70.472 E9.54113
G1 X-5.146 Y70.842 E9.62135
G1 X-7.000 Y71.209 E9.70130
G1 X-8.852 Y71.531 E9.78081
G1 X-10.723 Y71.851 E9.86111
G1 X-12.577 Y72.127 E9.94040
G1 X-14.446 Y72.402 E10.02031
G1 X-16.310 Y72.633 E10.09976
G1 X-18.195 Y72.861 E10.18008
G1 X-20.060 Y73.046 E10.25936
G1 X-22.864 Y73.317 E10.37852
G1 X-22.799 Y77.391 E10.55087
G1 X-21.799 Y77.367 E10.59319
G1 X-21.791 Y77.874 E10.61464
G1 X-23.196 Y77.896 E10.67408
G1 X-23.270 Y73.349 E10.86644
G1 X-26.021 Y73.515 E10.98302
G1 X-27.903 Y73.620 E11.06276
G1 X-29.609 Y73.686 E11.13498
G1 X-31.516 Y73.744 E11.21568
G1 X-33.215 Y73.772 E11.28756
G1 X-35.106 Y73.784 E11.36755
G1 X-36.803 Y73.773 E11.43934
G1 X-38.699 Y73.739 E11.51955
G1 X-40.412 Y73.690 E11.59204
G1 X-42.297 Y73.610 E11.67185
G1 X-44.002 Y73.524 E11.74407
G1 X-45.896 Y73.397 E11.82436
G1 X-47.582 Y73.274 E11.89587
G1 X-49.478 Y73.099 E11.97641
G1 X-51.185 Y72.937 E12.04895
G1 X-53.056 Y72.719 E12.12863
G1 X-54.726 Y72.522 E12.19976
G1 X-55.526 Y72.377 E12.23415
G1 X-56.287 Y72.157 E12.26766
G1 X-57.010 Y71.867 E12.30061
G1 X-57.719 Y71.495 E12.33448
G1 X-58.375 Y71.059 E12.36780
G1 X-58.992 Y70.555 E12.40150
G1 X-59.799 Y69.703 E12.45114
G1 X-60.263 Y69.069 E12.48437
G1 X-60.665 Y68.387 E12.51786
G1 X-60.997 Y67.665 E12.55148
G1 X-61.250 Y66.924 E12.58460
G1 X-61.428 Y66.153 E12.61807
G1 X-61.533 Y65.323 E12.65346
G1 X-61.654 Y64.340 E12.69535
G1 X-61.874 Y63.328 E12.73916
G1 X-62.187 Y62.341 E12.78296
G1 X-62.589 Y61.387 E12.82675
G1 X-63.078 Y60.475 E12.87053
G1 X-63.649 Y59.610 E12.91437
G1 X-64.299 Y58.803 E12.95820
G1 X-65.019 Y58.059 E13.00200
G1 X-65.805 Y57.385 E13.04580
G1 X-66.649 Y56.787 E13.08955
G1 X-67.546 Y56.269 E13.13337
G1 X-68.487 Y55.835 E13.17720
G1 X-69.463 Y55.491 E13.22098
G1 X-70.467 Y55.239 E13.26476
G1 X-71.491 Y55.080 E13.30860
G1 X-72.525 Y55.017 E13.35242
G1 X-73.514 Y55.047 E13.39427
G1 X-74.353 Y55.070 E13.42978
G1 X-75.122 Y55.013 E13.46240
G1 X-75.903 Y54.875 E13.49594
G1 X-76.659 Y54.661 E13.52918
G1 X-77.393 Y54.371 E13.56256
G1 X-78.080 Y54.015 E13.59530
G1 X-78.758 Y53.572 E13.62955
G1 X-79.352 Y53.093 E13.66183
G1 X-79.633 Y52.832 E13.67806
G1 X-80.167 Y52.250 E13.71147
G1 X-80.642 Y51.616 E13.74498
G1 X-81.047 Y50.941 E13.77828
G1 X-81.379 Y50.235 E13.81128
G1 X-81.648 Y49.474 E13.84542
G1 X-82.497 Y46.525 E13.97523
G1 X-83.295 Y43.551 E14.10548
G1 X-83.660 Y42.094 E14.16902
G1 X-84.262 Y39.675 E14.27447
G1 X-88.481 Y40.354 E14.45523
G1 X-88.681 Y39.109 E14.50857
G1 X-84.430 Y38.977 E14.68848
G1 X-85.099 Y35.827 E14.82470
G1 X-85.509 Y33.865 E14.90948
G1 X-85.880 Y31.891 E14.99445
G1 X-86.242 Y29.940 E15.07838
G1 X-86.571 Y27.938 E15.16420
G1 X-86.892 Y25.960 E15.24897
G1 X-87.171 Y23.973 E15.33385
G1 X-87.445 Y21.985 E15.41873
G1 X-87.678 Y19.992 E15.50361
G1 X-87.906 Y18.019 E15.58763
G1 X-88.094 Y16.000 E15.67340
G1 X-88.275 Y14.024 E15.75734
G1 X-88.417 Y12.000 E15.84317
G1 X-88.554 Y9.999 E15.92801
G1 X-88.740 Y5.989 E16.09782
G1 X-88.832 Y1.979 E16.26749
G1 X-88.832 Y-2.011 E16.43627
G1 X-88.740 Y-6.022 E16.60598
G1 X-88.555 Y-10.031 E16.77574
G1 X-88.278 Y-14.033 E16.94543
G1 X-87.905 Y-18.052 E17.11617
G1 X-87.678 Y-20.023 E17.20010
G1 X-87.445 Y-22.016 E17.28498
G1 X-87.170 Y-24.005 E17.36991
G1 X-86.893 Y-25.990 E17.45469
G1 X-86.571 Y-27.971 E17.53959
G1 X-86.243 Y-29.972 E17.62536
G1 X-85.881 Y-31.923 E17.70930
G1 X-85.510 Y-33.896 E17.79422
G1 X-85.098 Y-35.860 E17.87911
G1 X-84.430 Y-39.009 E18.01528
G1 X-88.681 Y-39.141 E18.19518
G1 X-88.481 Y-40.386 E18.24852
G1 X-87.408 Y-40.214 E18.29449
G1 X-84.262 Y-39.707 E18.42929
G1 X-83.660 Y-42.125 E18.53469
G1 X-83.294 Y-43.584 E18.59832
G1 X-82.886 Y-45.107 E18.66502
G1 X-82.491 Y-46.574 E18.72928
G1 X-82.061 Y-48.073 E18.79525
G1 X-81.651 Y-49.496 E18.85789
G1 X-81.377 Y-50.274 E18.89278
G1 X-81.047 Y-50.976 E18.92559
G1 X-80.644 Y-51.646 E18.95867
G1 X-80.171 Y-52.278 E18.99206
G1 X-79.640 Y-52.857 E19.02529
G1 X-79.039 Y-53.392 E19.05933
G1 X-78.759 Y-53.604 E19.07418
G1 X-78.088 Y-54.042 E19.10808
G1 X-77.385 Y-54.406 E19.14157
G1 X-76.654 Y-54.695 E19.17482
G1 X-75.909 Y-54.906 E19.20757
G1 X-75.125 Y-55.044 E19.24124
G1 X-74.351 Y-55.102 E19.27408
G1 X-73.514 Y-55.079 E19.30950
G1 X-72.525 Y-55.049 E19.35135
G1 X-71.491 Y-55.113 E19.39517
G1 X-70.468 Y-55.271 E19.43896
G1 X-69.463 Y-55.523 E19.48279
G1 X-68.487 Y-55.868 E19.52658
G1 X-67.546 Y-56.301 E19.57039
G1 X-66.650 Y-56.820 E19.61419
G1 X-65.806 Y-57.417 E19.65793
G1 X-65.019 Y-58.091 E19.70176
G1 X-64.299 Y-58.836 E19.74558
G1 X-63.649 Y-59.643 E19.78941
G1 X-63.078 Y-60.507 E19.83322
G1 X-62.589 Y-61.420 E19.87703
G1 X-62.187 Y-62.374 E19.92083
G1 X-61.874 Y-63.361 E19.96462
G1 X-61.654 Y-64.372 E20.00839
G1 X-61.533 Y-65.355 E20.05029
G1 X-61.428 Y-66.186 E20.08572
G1 X-61.251 Y-66.951 E20.11893
G1 X-60.995 Y-67.703 E20.15254
G1 X-60.668 Y-68.414 E20.18564
G1 X-60.259 Y-69.108 E20.21972
G1 X-59.801 Y-69.732 E20.25246
G1 X-59.268 Y-70.321 E20.28606
G1 X-58.669 Y-70.862 E20.32020
G1 X-58.388 Y-71.084 E20.33535
G1 X-57.710 Y-71.532 E20.36973
G1 X-57.018 Y-71.896 E20.40280
G1 X-56.287 Y-72.189 E20.43611
G1 X-55.524 Y-72.409 E20.46970
G1 X-54.730 Y-72.552 E20.50383
G1 X-53.057 Y-72.750 E20.57509
G1 X-51.168 Y-72.971 E20.65555
G1 X-49.482 Y-73.133 E20.72719
G1 X-47.582 Y-73.306 E20.80790
G1 X-45.897 Y-73.429 E20.87936
G1 X-44.009 Y-73.555 E20.95940
G1 X-42.297 Y-73.643 E21.03192
G1 X-40.413 Y-73.722 E21.11168
G1 X-38.699 Y-73.772 E21.18422
G1 X-36.804 Y-73.805 E21.26439
G1 X-35.107 Y-73.817 E21.33618
G1 X-33.214 Y-73.803 E21.41625
G1 X-31.500 Y-73.777 E21.48876
G1 X-29.616 Y-73.717 E21.56850
G1 X-27.906 Y-73.653 E21.64088
G1 X-26.020 Y-73.546 E21.72079
G1 X-23.270 Y-73.382 E21.83732
G1 X-23.196 Y-77.896 E22.02830
G1 X-21.791 Y-77.874 E22.08774
G1 X-21.799 Y-77.366 E22.10923
G1 X-22.798 Y-77.388 E22.15150
G1 X-22.864 Y-73.349 E22.32237
G1 X-20.061 Y-73.078 E22.44149
G1 X-18.195 Y-72.893 E22.52081
G1 X-16.311 Y-72.664 E22.60109
G1 X-14.440 Y-72.433 E22.68084
G1 X-12.577 Y-72.160 E22.76049
G1 X-10.722 Y-71.883 E22.83982
G1 X-8.851 Y-71.562 E22.92012
G1 X-7.000 Y-71.241 E22.99959
G1 X-5.146 Y-70.875 E23.07953
G1 X-3.286 Y-70.504 E23.15976
G1 X-1.457 Y-70.098 E23.23901
G1 X0.384 Y-69.682 E23.31885
G1 X2.214 Y-69.228 E23.39861
G1 X4.051 Y-68.767 E23.47872
G1 X5.858 Y-68.271 E23.55799
G1 X7.664 Y-67.770 E23.63727
G1 X9.482 Y-67.222 E23.71759
G1 X11.295 Y-66.672 E23.79773
G1 X13.076 Y-66.088 E23.87701
G1 X14.877 Y-65.491 E23.95727
G1 X16.643 Y-64.864 E24.03655
G1 X18.429 Y-64.224 E24.11680
G1 X20.180 Y-63.552 E24.19613
G1 X21.927 Y-62.878 E24.27534
G1 X23.680 Y-62.156 E24.35554
G1 X25.432 Y-61.430 E24.43576
G1 X27.147 Y-60.674 E24.51504
G1 X28.881 Y-59.905 E24.59528
G1 X30.577 Y-59.106 E24.67459
G1 X32.271 Y-58.306 E24.75383
G1 X33.968 Y-57.456 E24.83412
G1 X35.641 Y-56.614 E24.91334
G1 X37.315 Y-55.724 E24.99354
G1 X38.979 Y-54.835 E25.07335
G1 X42.252 Y-52.986 E25.23236
G1 X43.882 Y-52.013 E25.31266
G1 X45.488 Y-51.051 E25.39185
G1 X47.092 Y-50.038 E25.47210
G1 X48.695 Y-49.024 E25.55233
G1 X50.255 Y-47.985 E25.63162
G1 X51.813 Y-46.946 E25.71084
G1 X53.367 Y-45.856 E25.79113
G1 X54.919 Y-44.765 E25.87138
G1 X56.426 Y-43.652 E25.95063
G1 X57.931 Y-42.537 E26.02986
G1 X60.907 Y-40.220 E26.18940
G1 X63.844 Y-37.816 E26.34995
G1 X66.683 Y-35.373 E26.50838
G1 X69.498 Y-32.828 E26.66891
G1 X72.232 Y-30.231 E26.82842
G1 X74.920 Y-27.550 E26.98901
G1 X75.547 Y-26.984 E27.02474
G1 X76.268 Y-26.477 E27.06202
G1 X77.047 Y-26.062 E27.09936
G1 X77.870 Y-25.746 E27.13665
G1 X78.726 Y-25.532 E27.17397
G1 X79.598 Y-25.425 E27.21114
G1 X80.050 Y-25.422 E27.23026
G1 X80.488 Y-25.427 E27.24879
G1 X81.359 Y-25.534 E27.28591
G1 X82.214 Y-25.749 E27.32320
G1 X83.037 Y-26.067 E27.36052
G1 X83.815 Y-26.483 E27.39784
G1 X84.536 Y-26.991 E27.43515
G1 X85.190 Y-27.582 E27.47244
G1 X85.766 Y-28.252 E27.50981
G1 X86.255 Y-28.984 E27.54705
G1 X86.652 Y-29.772 E27.58437
G1 X86.949 Y-30.603 E27.62170
G1 X87.142 Y-31.463 E27.65899
G1 X87.228 Y-32.325 E27.69563
G1 X87.230 Y-32.804 E27.71589
G1 X87.156 Y-33.667 E27.75253
G1 X86.974 Y-34.530 E27.78984
G1 X86.687 Y-35.364 E27.82715
G1 X86.300 Y-36.157 E27.86448
G1 X85.819 Y-36.897 E27.90181
G1 X85.252 Y-37.572 E27.93910
G1 X84.606 Y-38.171 E27.97637
G1 X83.893 Y-38.689 E28.01365
G1 X83.121 Y-39.116 E28.05096
G1 X82.302 Y-39.443 E28.08827
G1 X81.449 Y-39.669 E28.12560
G1 X80.575 Y-39.788 E28.16291
G1 X79.694 Y-39.801 E28.20018
G1 X78.817 Y-39.704 E28.23750
G1 X77.959 Y-39.502 E28.27479
G1 X77.130 Y-39.196 E28.31217
G1 X76.348 Y-38.790 E28.34944
G1 X75.619 Y-38.293 E28.38676
G1 X75.023 Y-37.768 E28.42036
G1 X74.847 Y-37.621 E28.43006
G1 X74.726 Y-37.552 E28.43595
G1 X74.597 Y-37.505 E28.44176
G1 X74.460 Y-37.481 E28.44764
G1 X74.324 Y-37.482 E28.45340
G1 X74.180 Y-37.507 E28.45958
G1 X74.049 Y-37.555 E28.46548
G1 X73.934 Y-37.622 E28.47111
G1 X73.825 Y-37.714 E28.47714
G1 X73.737 Y-37.818 E28.48291
G1 X73.666 Y-37.943 E28.48899
G1 X73.619 Y-38.072 E28.49479
G1 X73.595 Y-38.209 E28.50068
G1 X73.596 Y-38.345 E28.50643
G1 X73.621 Y-38.489 E28.51261
G1 X73.667 Y-38.614 E28.51825
G1 X73.739 Y-38.738 E28.52431
G1 X73.842 Y-38.860 E28.53107
G1 X74.458 Y-39.418 E28.56623
G1 X75.154 Y-39.934 E28.60288
G1 X75.878 Y-40.368 E28.63858
G1 X76.658 Y-40.737 E28.67508
G1 X77.467 Y-41.029 E28.71146
G1 X78.286 Y-41.236 E28.74720
G1 X79.137 Y-41.365 E28.78361
G1 X79.999 Y-41.412 E28.82012
G1 X80.852 Y-41.374 E28.85624
G1 X81.697 Y-41.254 E28.89235
G1 X82.536 Y-41.050 E28.92887
G1 X83.331 Y-40.773 E28.96448
G1 X84.121 Y-40.407 E29.00131
G1 X84.856 Y-39.976 E29.03735
G1 X85.548 Y-39.474 E29.07352
G1 X86.187 Y-38.908 E29.10963
G1 X86.772 Y-38.276 E29.14605
G1 X87.290 Y-37.596 E29.18221
G1 X87.740 Y-36.868 E29.21842
G1 X88.118 Y-36.098 E29.25470
G1 X88.419 Y-35.296 E29.29094
G1 X88.638 Y-34.477 E29.32680
G1 X88.779 Y-33.623 E29.36341
G1 X88.836 Y-32.774 E29.39941
G1 X88.809 Y-31.913 E29.43585
G1 X88.700 Y-31.067 E29.47193
G1 X88.504 Y-30.212 E29.50903
G1 X88.388 Y-29.832 E29.52584
G1 X88.069 Y-29.014 E29.56298
G1 X87.688 Y-28.261 E29.59868
G1 X87.227 Y-27.535 E29.63506
G1 X86.698 Y-26.858 E29.67140
G1 X86.106 Y-26.236 E29.70772
G1 X85.462 Y-25.681 E29.74368
G1 X84.759 Y-25.183 E29.78013
G1 X84.017 Y-24.760 E29.81626
G1 X83.234 Y-24.410 E29.85254
G1 X82.430 Y-24.141 E29.88840
